!!!!SEGMENT: pl-wn--sd-xvi-qu-273--089_gomolka-mikolaj--twe-milosierdzie-twoje-prawde-wieczny-panie.krn
!!!cenid: 15xx:294
!!!COM: Gomółka, Mikołaj
!!!COM-rismid: pe30013343
!!!CDT: ~1535->1591/04/30
!!!CNT: Polish
!!!GTL: Melodiae na psalterz polski
!!!OTL: LXXXIX. Twe miłosierdzie, Twoje prawdę, wieczny Panie,
!!!PDT: 1580
!!!AGN: Sacred
!!!SMS-siglum: PL-Wn
!!!SMS-shelfmark: SD XVI.Qu.273
!!!SMS-shelfwork: 089 G
!!!NIFC-rismid:
!!!ONB-nifc: Melodiae na psalterz polski
**kern	**text	**kern	**text	**kern	**text	**kern	**text
*part4	*part4	*part3	*part3	*part2	*part2	*part1	*part1
*staff4	*staff4	*staff3	*staff3	*staff2	*staff2	*staff1	*staff1
*clefF4	*	*clefC4	*	*clefC3	*	*clefC1	*
*k[b-]	*	*k[b-]	*	*k[b-]	*	*k[b-]	*
*c:	*	*c:	*	*c:	*	*c:	*
*M4/2	*	*M4/2	*	*M4/2	*	*M4/2	*
*met(C|)	*	*met(C|)	*	*met(C|)	*	*met(C|)	*
=-	=-	=-	=-	=-	=-	=-	=-
1D	Twé	1A	Twé	1d	Twé	1d	Twé
2D	mi-	2A/	mi-	2.d	mi-	2f	mi-
2G	-ło-	2B-	-ło-	.	.	2g/	-ło-
.	.	.	.	4e	-ło-	.	.
=3-	=3-	=3-	=3-	=3-	=3-	=3-	=3-
2.F	-śier-	1c	-śier-	1f	-śier-	1a	-śier-
4E	.	.	.	.	.	.	.
2D/	-dӡié/	2d	-dӡié/	2f	-dӡié/	2a	-dӡié/
2E-X	two-	2B-	two-	2e-X	two-	2g/	two-
=4-	=4-	=4-	=4-	=4-	=4-	=4-	=4-
2E	-ie	2B-	-ie	2g	-ie	2b-	-ie
2C	pra(w-	2A/	pra(w-	2e-X	pra(w-	2cc	pra(w-
2BB-	-dę)	2B-	-dę)	2f	-dę)	2dd	-dę)
1F	wiecӡ-	1c	wiecӡ-	1f	wiecӡ-	1cc	wiecӡ-
=5-	=5-	=5-	=5-	=5-	=5-	=5-	=5-
.	.	.	.	.	.	.	.
2BB-	-ny	2d	-ny	2f	-ny	2b-	-ny
2C	pá-	2c	pá-	2e-X	pá-	1a	pá-
2D/	.	2A/	.	2d	.	.	.
=6-	=6-	=6-	=6-	=6-	=6-	=6-	=6-
2GG	-nie/	2B-	-nie/	2d	-nie/	2g/	-nie/
2G	Wyʃ-	2B-	Wyʃ-	2g	Wyʃ-	2dd	Wyʃ-
2E	-łá-	4G	-łá-	2g	-łá-	2ee	-łá-
.	.	4A	.	.	.	.	.
2BB-	-wiáć	4B-	-wiáć	2f	-wiáć	2dd	-wiáć
.	.	4G	.	.	.	.	.
!!LO:PB:g=original
=7-	=7-	=7-	=7-	=7-	=7-	=7-	=7-
2F	móy	2A/	móy	2f	móy	2cc	móy
2D/	rym	2d	rym	2f	rym	1b-	rym
2E	bę-	2c	bę-	2g	bę-	.	.
2F	.	2c	.	4f	.	2a	bę-
.	.	.	.	4e	.	.	.
=8-	=8-	=8-	=8-	=8-	=8-	=8-	=8-
2BB-	-dӡie/	2B-	-dӡie/	2d	-dӡie/	2b-	-dӡie/
2D/	pó-	2A/	pó-	2d	pó-	2f	pó-
1GG	-ťi	1G	-ťi	1d	-ťi	1g	-ťi
=9-	=9-	=9-	=9-	=9-	=9-	=9-	=9-
2BB-	świá-	2F	świá-	2d	świá-	2d	świá-
2BB-	-tá	4B-	-tá	2d	-tá	2f	-tá
.	.	4A	.	.	.	.	.
1C	stá-	4G	.	1c	stá-	1e-X	stá-
.	.	4F	.	.	.	.	.
.	.	2G	stá-	.	.	.	.
=10-	=10-	=10-	=10-	=10-	=10-	=10-	=10-
!'ogonek po lewej stronie'	!	!	!	!	!	!	!
!!LO:N:vis=00
0GG/	-nie.	0G/	-nie.	0B#/	-nie.	0d/	-nie.
=-	=-	=-	=-	=-	=-	=-	=-
*-	*-	*-	*-	*-	*-	*-	*-
!!!RDF**kern: l = terminal long
!!!system-decoration: s1,s2,s3,s4
!!!ENC:Anna Matuszewska
!!!END:2020-02-15
!!!URL-scan: https://polona.pl/item/melodiae-na-psalterz-polski,Nzk3MTM4ODQ/207 Scan on Polona
!!!IIIF: https://polona.pl/iiif/item/Nzk3MTM4ODQ/manifest.json
